envergo/static/images/avatar_light.svg

<svg width="100" height="100" viewBox="0 0 100 100" fill="none" xmlns="http://www.w3.org/2000/svg">
<path fill-rule="evenodd" clip-rule="evenodd" d="M18.75 17.5C18.0607 17.5 17.5 16.9393 17.5 16.25C17.5 15.5607 18.0607 15 18.75 15C19.4393 15 20 15.5607 20 16.25C20 16.9393 19.4393 17.5 18.75 17.5Z" fill="#CACAFB"/>
<path fill-rule="evenodd" clip-rule="evenodd" d="M6.25 87.5C5.56075 87.5 5 86.9393 5 86.25C5 85.5607 5.56075 85 6.25 85C6.93925 85 7.5 85.5607 7.5 86.25C7.5 86.9393 6.93925 87.5 6.25 87.5Z" fill="#CACAFB"/>
<path fill-rule="evenodd" clip-rule="evenodd" d="M93.75 80C93.0607 80 92.5 79.4393 92.5 78.75C92.5 78.0607 93.0607 77.5 93.75 77.5C94.4393 77.5 95 78.0607 95 78.75C95 79.4393 94.4393 80 93.75 80Z" fill="#CACAFB"/>
<path fill-rule="evenodd" clip-rule="evenodd" d="M73.75 15C73.0607 15 72.5 14.4393 72.5 13.75C72.5 13.0607 73.0607 12.5 73.75 12.5C74.4393 12.5 75 13.0607 75 13.75C75 14.4393 74.4393 15 73.75 15Z" fill="#CACAFB"/>
<path d="M52.6851 12.5C73.3958 12.5 90.1851 29.2893 90.1851 50C90.1851 50.6904 89.6255 51.25 88.9351 51.25C88.2448 51.25 87.6851 50.6904 87.6851 50C87.6851 30.67 72.0151 15 52.6851 15C33.3552 15 17.6851 30.67 17.6851 50C17.6851 69.33 33.3552 85 52.6851 85C66.6286 85 79.0691 76.7719 84.6581 64.2604C84.9397 63.6301 85.6789 63.3474 86.3093 63.6289C86.9396 63.9105 87.2223 64.6497 86.9407 65.2801C80.953 78.6841 67.6238 87.5 52.6851 87.5C31.9744 87.5 15.1851 70.7107 15.1851 50C15.1851 29.2893 31.9744 12.5 52.6851 12.5Z" fill="#E1000F"/>
<path d="M88.9351 60.7407C88.9351 61.4822 88.334 62.0833 87.5925 62.0833C86.851 62.0833 86.2499 61.4822 86.2499 60.7407C86.2499 59.9993 86.851 59.3982 87.5925 59.3982C88.334 59.3982 88.9351 59.9993 88.9351 60.7407Z" fill="#E1000F"/>
<path d="M18.1164 26.2901C17.5671 25.8719 16.7828 25.9782 16.3647 26.5275C12.1401 32.0767 9.81476 38.8497 9.81476 45.9722C9.81476 46.6626 10.3744 47.2222 11.0648 47.2222C11.7551 47.2222 12.3148 46.6626 12.3148 45.9722C12.3148 39.4015 14.4578 33.1595 18.3538 28.0418C18.772 27.4925 18.6657 26.7083 18.1164 26.2901Z" fill="#E1000F"/>
<path fill-rule="evenodd" clip-rule="evenodd" d="M69.9957 43.6462C69.1084 32.9992 63.151 27.5 52.5 27.5C41.849 27.5 35.8916 32.9992 35.0043 43.6462C34.9372 44.4519 35.641 45.1084 36.4401 44.9855L38.75 44.6301V45.1762C37.8553 45.3487 37.1957 45.5873 36.7334 45.932C35.561 46.8061 34.9999 48.204 34.9999 50C34.9999 53.1904 36.8095 55 39.9999 55C40.136 55 40.267 54.9782 40.3896 54.938C41.7194 57.5166 43.7808 59.6236 46.2856 60.9524C46.2624 61.0478 46.25 61.1474 46.25 61.25C46.25 62.8733 45.4764 64.316 44.2777 65.2294C44.2584 65.2431 44.2395 65.2573 44.2211 65.2719C43.3904 65.8866 42.3626 66.25 41.25 66.25H38.75L38.4688 66.2552C34.457 66.403 31.25 69.702 31.25 73.75C31.25 74.4404 31.8096 75 32.5 75C33.1904 75 33.75 74.4404 33.75 73.75C33.75 70.9886 35.9886 68.75 38.75 68.75H41.25L41.5312 68.7448C42.5767 68.7063 43.5675 68.4538 44.4612 68.0297C45.8014 70.1389 48.273 70.7827 51.5532 69.9627C52.2229 69.7952 52.6301 69.1166 52.4627 68.4468C52.2952 67.7771 51.6166 67.3699 50.9468 67.5373C48.6096 68.1216 47.2446 67.8053 46.5164 66.59C47.7396 65.3835 48.5503 63.7599 48.7178 61.9498C49.9189 62.3081 51.1876 62.5 52.5 62.5C53.8124 62.5 55.0811 62.3081 56.2822 61.9498C56.6266 65.6719 59.6908 68.6056 63.4688 68.7448L63.75 68.75H66.25C69.0114 68.75 71.25 70.9886 71.25 73.75C71.25 74.4404 71.8096 75 72.5 75C73.1904 75 73.75 74.4404 73.75 73.75C73.75 69.702 70.543 66.403 66.5312 66.2552L66.25 66.25H63.75C60.9886 66.25 58.75 64.0114 58.75 61.25C58.75 61.1474 58.7376 61.0478 58.7144 60.9524C61.2192 59.6236 63.2806 57.5166 64.6104 54.9381C64.733 54.9783 64.8639 55 65 55C68.1904 55 70 53.1904 70 50C70 48.204 69.4389 46.8061 68.2665 45.932C67.6345 45.4608 66.634 45.1878 65.168 45.0112C65.1146 45.004 65.06 45.0002 65.0047 45L65.0026 44.9999C64.882 44.9995 64.7645 45.0165 64.6528 45.0489C64.4727 45.1008 64.3093 45.1922 64.1726 45.313C63.9308 45.5267 63.7723 45.8326 63.7522 46.1757C63.7503 46.207 63.7496 46.2382 63.75 46.2692V48.125L63.7454 48.4697C63.5724 54.8811 58.5904 60 52.5 60C46.3008 60 41.25 54.6967 41.25 48.125V44.2455L52.6901 42.4855L52.8376 42.4536C53.1747 42.359 53.4594 42.1263 53.618 41.809L54.868 39.309L54.9257 39.1749C55.1391 38.5865 54.8824 37.9186 54.309 37.632L54.1749 37.5743C53.5865 37.3609 52.9187 37.6176 52.632 38.191L51.67 40.1125L37.675 42.265L37.6978 42.104C38.9229 33.9388 43.7541 30 52.5 30L52.9489 30.0035C61.2629 30.1347 65.9326 33.9424 67.2356 41.6855L67.3 42.0988L59.0532 40.0373L58.9097 40.0101C58.2891 39.9294 57.6928 40.3249 57.5373 40.9468C57.3699 41.6166 57.7771 42.2952 58.4468 42.4627L68.4468 44.9627L68.5929 44.9904C69.3677 45.0909 70.0626 44.4496 69.9957 43.6462ZM38.75 47.7376C38.4849 47.8073 38.3079 47.8765 38.2277 47.9363C37.7592 48.2856 37.4999 48.9316 37.4999 50C37.4999 51.5898 38.0327 52.3158 39.3891 52.4687C39.0079 51.2099 38.7879 49.8765 38.7545 48.4954L38.75 48.125V47.7376ZM67.5 50C67.5 51.5898 66.9672 52.3157 65.6109 52.4687C66.0261 51.0977 66.25 49.6382 66.25 48.125V47.7377C66.5151 47.8073 66.692 47.8765 66.7721 47.9363C67.2407 48.2856 67.5 48.9316 67.5 50Z" fill="#000091"/>
</svg>

<svg width="100" height="100" fill="none" xmlns="http://www.w3.org/2000/svg"><path fill-rule="evenodd" clip-rule="evenodd" d="M18.75 17.5a1.25 1.25 0 110-2.5 1.25 1.25 0 010 2.5zm-12.5 70a1.25 1.25 0 110-2.5 1.25 1.25 0 010 2.5zm87.5-7.5a1.25 1.25 0 110-2.5 1.25 1.25 0 010 2.5zm-20-65a1.25 1.25 0 110-2.5 1.25 1.25 0 010 2.5z" fill="#CACAFB"/><path d="M52.685 12.5c20.71 0 37.5 16.79 37.5 37.5a1.25 1.25 0 11-2.5 0c0-19.33-15.67-35-35-35s-35 15.67-35 35 15.67 35 35 35c13.944 0 26.384-8.228 31.973-20.74a1.25 1.25 0 012.283 1.02C80.953 78.684 67.624 87.5 52.685 87.5c-20.71 0-37.5-16.79-37.5-37.5s16.79-37.5 37.5-37.5z" fill="#E1000F"/><path d="M88.935 60.74a1.343 1.343 0 11-2.685 0 1.343 1.343 0 012.685 0zM18.116 26.29a1.25 1.25 0 00-1.751.238 31.989 31.989 0 00-6.55 19.444 1.25 1.25 0 102.5 0 29.49 29.49 0 016.039-17.93 1.25 1.25 0 00-.238-1.752z" fill="#E1000F"/><path fill-rule="evenodd" clip-rule="evenodd" d="M69.996 43.646C69.108 33 63.15 27.5 52.5 27.5S35.892 33 35.004 43.646a1.25 1.25 0 001.436 1.34l2.31-.356v.546c-.895.173-1.554.411-2.017.756C35.561 46.806 35 48.204 35 50c0 3.19 1.81 5 5 5 .136 0 .267-.022.39-.062 1.33 2.579 3.39 4.686 5.896 6.014a1.258 1.258 0 00-.036.298 4.992 4.992 0 01-2.029 4.022 4.978 4.978 0 01-2.971.978h-2.5l-.281.005a7.5 7.5 0 00-7.219 7.495 1.25 1.25 0 102.5 0 5 5 0 015-5h2.5l.281-.005a7.46 7.46 0 002.93-.715c1.34 2.109 3.812 2.753 7.092 1.933a1.25 1.25 0 00-.606-2.426c-2.337.585-3.702.268-4.43-.947a7.478 7.478 0 002.2-4.64c1.202.358 2.47.55 3.783.55 1.312 0 2.581-.192 3.782-.55a7.501 7.501 0 007.187 6.795l.281.005h2.5a5 5 0 015 5 1.25 1.25 0 102.5 0 7.5 7.5 0 00-7.219-7.495l-.281-.005h-2.5a5 5 0 01-5-5c0-.103-.012-.202-.036-.298 2.505-1.328 4.567-3.435 5.896-6.014.123.04.254.062.39.062 3.19 0 5-1.81 5-5 0-1.796-.561-3.194-1.734-4.068-.632-.471-1.632-.744-3.098-.92a1.257 1.257 0 00-.163-.012h-.002a1.24 1.24 0 00-.83.313 1.247 1.247 0 00-.423.956v1.856l-.005.345C63.572 54.88 58.59 60 52.5 60c-6.2 0-11.25-5.303-11.25-11.875v-3.88l11.44-1.76.148-.031a1.25 1.25 0 00.78-.645l1.25-2.5.058-.134a1.25 1.25 0 00-.617-1.543l-.134-.058a1.25 1.25 0 00-1.543.617l-.962 1.921-13.995 2.153.023-.161C38.923 33.939 43.754 30 52.5 30l.449.003c8.314.132 12.984 3.94 14.287 11.682l.064.414-8.247-2.062-.143-.027a1.25 1.25 0 00-.463 2.453l10 2.5.146.027c.775.1 1.47-.54 1.403-1.344zM38.75 47.738c-.265.07-.442.139-.522.198-.469.35-.728.996-.728 2.064 0 1.59.533 2.316 1.89 2.469a14.943 14.943 0 01-.636-3.974l-.004-.37v-.387zM67.5 50c0 1.59-.533 2.316-1.89 2.469.416-1.371.64-2.83.64-4.344v-.387c.265.07.442.139.522.198.469.35.728.996.728 2.064z" fill="#000091"/></svg>
